lib/brands/icons/dynamics-365.svg

<svg xmlns="http://www.w3.org/2000/svg" fill="none" aria-hidden="true" viewBox="0 0 48 48"><g id="dynamics-365-Icon"><g id="Group"><path id="Vector" fill="url(#paint0_linear_94_17376)" d="M11.7129 44C11.7129 34.9321 11.7129 25.9563 11.7129 16.8884C12.2192 17.2106 12.6795 17.4868 13.0938 17.7629C15.1191 19.0518 17.0984 20.3406 19.1237 21.6295C19.4459 21.8136 19.538 22.0437 19.3999 22.412C18.4333 25.2658 17.4666 28.0736 16.546 30.9275C15.8096 33.0909 15.1191 35.3003 14.3826 37.4637C13.8303 39.0748 13.2779 40.6398 12.7256 42.2509C12.6795 42.3889 12.6335 42.481 12.6795 42.6651C12.8636 42.527 13.1398 42.3889 13.2779 42.2048C14.4747 40.916 15.6715 39.5811 16.8682 38.3383C18.7555 36.359 20.6427 34.4718 22.5299 32.4925C24.0949 30.8815 25.6139 29.2704 27.1329 27.7054C28.9741 25.8182 30.7693 23.9309 32.6105 22.0437C33.485 21.1231 34.3596 20.2486 35.2342 19.328C35.6024 18.9597 35.9246 18.5454 36.3849 18.2232C36.3849 18.4074 36.3849 18.6375 36.3849 18.8216C36.3849 22.55 36.3849 26.2324 36.3849 29.9609C36.3849 30.3751 36.2468 30.6053 35.8786 30.8354C33.9453 31.8481 32.0581 32.9068 30.1249 33.9194C27.5012 35.3464 24.8774 36.8193 22.2077 38.2463C19.9983 39.443 17.7888 40.6398 15.5794 41.8366C14.4287 42.481 13.3239 43.0794 12.1732 43.7238C12.1272 43.8159 11.943 43.8619 11.7129 44Z"/><path id="Vector_2" fill="url(#paint1_linear_94_17376)" d="M11.6208 4C19.63 8.32681 27.5472 12.6536 35.5103 16.9804C34.7278 17.5328 34.0374 18.0852 33.3469 18.5915C31.5057 19.8803 29.6645 21.1692 27.8694 22.504C27.5932 22.6881 27.363 22.7342 27.0869 22.5501C25.4758 21.7215 23.8187 20.939 22.2077 20.1565C19.0316 18.5915 15.8556 17.0265 12.6335 15.5535C11.8049 15.1853 11.5748 14.771 11.6208 13.8964C11.6208 10.6743 11.6208 7.36018 11.6208 4Z"/></g></g><defs><linearGradient id="paint0_linear_94_17376" x1="11.7317" x2="36.4079" y1="30.4351" y2="30.4351" gradientUnits="userSpaceOnUse"><stop offset="0.5248" stop-color="#61C3FF"/><stop offset="1" stop-color="#13A4FF"/></linearGradient><linearGradient id="paint1_linear_94_17376" x1="11.5861" x2="35.5175" y1="13.3418" y2="13.3418" gradientUnits="userSpaceOnUse"><stop offset="0.5248" stop-color="#61C3FF"/><stop offset="1" stop-color="#13A4FF"/></linearGradient></defs></svg>

<svg xmlns="http://www.w3.org/2000/svg" fill="none" aria-hidden="true" viewBox="0 0 48 48"><path fill="url(#a)" d="M11.713 44V16.888c.506.323.967.599 1.38.875 2.026 1.289 4.005 2.578 6.03 3.866.323.185.415.415.277.783-.967 2.854-1.933 5.662-2.854 8.515-.736 2.164-1.427 4.373-2.163 6.537-.553 1.61-1.105 3.176-1.657 4.787-.046.138-.093.23-.046.414.184-.138.46-.276.598-.46 1.197-1.289 2.393-2.624 3.59-3.867 1.888-1.979 3.775-3.866 5.662-5.846 1.565-1.61 3.084-3.222 4.603-4.787 1.841-1.887 3.636-3.774 5.478-5.661.874-.92 1.749-1.795 2.623-2.716.368-.368.69-.783 1.15-1.105v11.738c0 .414-.137.644-.505.874-1.934 1.013-3.82 2.072-5.754 3.084-2.624 1.427-5.248 2.9-7.917 4.327l-6.629 3.59c-1.15.645-2.255 1.243-3.406 1.888-.046.092-.23.138-.46.276Z"/><path fill="url(#b)" d="M11.62 4c8.01 4.327 15.927 8.654 23.89 12.98-.782.553-1.473 1.105-2.163 1.611-1.841 1.29-3.683 2.578-5.478 3.913-.276.184-.506.23-.782.046-1.611-.829-3.268-1.611-4.88-2.393-3.175-1.566-6.351-3.13-9.574-4.604-.828-.368-1.058-.782-1.012-1.657V4Z"/><defs><linearGradient id="a" x1="11.732" x2="36.408" y1="30.435" y2="30.435" gradientUnits="userSpaceOnUse"><stop offset=".525" stop-color="#61C3FF"/><stop offset="1" stop-color="#13A4FF"/></linearGradient><linearGradient id="b" x1="11.586" x2="35.517" y1="13.342" y2="13.342" gradientUnits="userSpaceOnUse"><stop offset=".525" stop-color="#61C3FF"/><stop offset="1" stop-color="#13A4FF"/></linearGradient></defs></svg>
